src/renderer/src/assets/icons/appleLogo.svg

<svg viewBox="0 0 384 512" xmlns="http://www.w3.org/2000/svg"><path d="m318.7 268.7c-.2-36.7 16.4-64.4 50-84.8-18.8-26.9-47.2-41.7-84.7-44.6-35.5-2.8-74.3 20.7-88.5 20.7-15 0-49.4-19.7-76.4-19.7-55.8.9-115.1 44.5-115.1 133.2q0 39.3 14.4 81.2c12.8 36.7 59 126.7 107.2 125.2 25.2-.6 43-17.9 75.8-17.9 31.8 0 48.3 17.9 76.4 17.9 48.6-.7 90.4-82.5 102.6-119.3-65.2-30.7-61.7-90-61.7-91.9zm-56.6-164.2c27.3-32.4 24.8-61.9 24-72.5-24.1 1.4-52 16.4-67.9 34.9-17.5 19.8-27.8 44.3-25.6 71.9 26.1 2 49.9-11.4 69.5-34.3z"/></svg>

<svg width="384" height="512" viewBox="0 0 384 512" fill="none" xmlns="http://www.w3.org/2000/svg">
<path d="M318.7 268.7C318.5 232 335.1 204.3 368.7 183.9C349.9 157 321.5 142.2 284 139.3C248.5 136.5 209.7 160 195.5 160C180.5 160 146.1 140.3 119.1 140.3C63.3 141.2 4 184.8 4 273.5C4 299.7 8.8 326.767 18.4 354.7C31.2 391.4 77.4 481.4 125.6 479.9C150.8 479.3 168.6 462 201.4 462C233.2 462 249.7 479.9 277.8 479.9C326.4 479.2 368.2 397.4 380.4 360.6C315.2 329.9 318.7 270.6 318.7 268.7ZM262.1 104.5C289.4 72.1 286.9 42.6 286.1 32C262 33.4 234.1 48.4 218.2 66.9C200.7 86.7 190.4 111.2 192.6 138.8C218.7 140.8 242.5 127.4 262.1 104.5Z" fill="white"/>
</svg>
